src/assets/images/mobile/InstagramIcon.svg

<svg width="35" height="34" viewBox="0 0 35 34" fill="none" xmlns="http://www.w3.org/2000/svg">
<path d="M17.5001 0.333332C12.9736 0.333332 12.406 0.352535 10.6283 0.433612C8.85437 0.51454 7.64283 0.796325 6.58268 1.20826C5.4867 1.63419 4.55724 2.20411 3.6307 3.13064C2.70412 4.05718 2.1342 4.98674 1.70832 6.08272C1.29629 7.14282 1.0146 8.35437 0.933574 10.1283C0.852496 11.906 0.833344 12.4736 0.833344 17.0001C0.833344 21.5264 0.852496 22.094 0.933574 23.8717C1.0146 25.6456 1.29629 26.8572 1.70832 27.9173C2.13425 29.0133 2.70417 29.9427 3.6307 30.8694C4.55729 31.7959 5.4867 32.3658 6.58268 32.7917C7.64283 33.2037 8.85437 33.4854 10.6283 33.5664C12.406 33.6475 12.9736 33.6667 17.5001 33.6667C22.0264 33.6667 22.594 33.6475 24.3717 33.5664C26.1456 33.4855 27.3572 33.2037 28.4173 32.7917C29.5133 32.3658 30.4427 31.7959 31.3694 30.8694C32.2959 29.9427 32.8658 29.0133 33.2917 27.9173C33.7037 26.8572 33.9855 25.6456 34.0664 23.8717C34.1475 22.094 34.1667 21.5264 34.1667 17.0001C34.1667 12.4736 34.1475 11.906 34.0664 10.1283C33.9855 8.35437 33.7037 7.14282 33.2917 6.08272C32.8658 4.98674 32.2959 4.05718 31.3694 3.13064C30.4427 2.20411 29.5133 1.63419 28.4173 1.20826C27.3572 0.796325 26.1456 0.51454 24.3717 0.433612C22.594 0.352535 22.0264 0.333332 17.5001 0.333332ZM17.5001 3.33631C21.9502 3.33631 22.4773 3.35333 24.2348 3.43352C25.8598 3.5076 26.7423 3.77911 27.3295 4.00736C28.1075 4.30974 28.6627 4.67086 29.2459 5.25408C29.8291 5.8373 30.1903 6.39254 30.4926 7.17046C30.7209 7.75775 30.9924 8.64027 31.0665 10.2652C31.1467 12.0227 31.1637 12.5498 31.1637 17C31.1637 21.4502 31.1467 21.9773 31.0665 23.7348C30.9924 25.3598 30.7209 26.2423 30.4926 26.8295C30.1903 27.6075 29.8291 28.1627 29.2459 28.7459C28.6627 29.3291 28.1075 29.6903 27.3295 29.9926C26.7423 30.2209 25.8597 30.4924 24.2348 30.5665C22.4776 30.6467 21.9505 30.6637 17.5 30.6637C13.0495 30.6637 12.5225 30.6467 10.7652 30.5664C9.14023 30.4924 8.25776 30.2209 7.67052 29.9926C6.8925 29.6903 6.33731 29.3291 5.75414 28.7459C5.17092 28.1627 4.80975 27.6075 4.50737 26.8295C4.27912 26.2423 4.00766 25.3597 3.93353 23.7348C3.85334 21.9773 3.83632 21.4502 3.83632 17C3.83632 12.5498 3.85334 12.0227 3.93353 10.2652C4.00766 8.64022 4.27912 7.75775 4.50737 7.17051C4.80975 6.39249 5.17092 5.8373 5.75409 5.25413C6.33731 4.67086 6.89255 4.30974 7.67047 4.00736C8.25776 3.77911 9.14028 3.5076 10.7652 3.43352C12.5227 3.35333 13.0498 3.33631 17.5 3.33631" fill="#7FDEE4"/>
<path d="M17.5001 22.5556C14.4317 22.5556 11.9444 20.0683 11.9444 17.0001C11.9444 13.9317 14.4317 11.4444 17.5001 11.4444C20.5683 11.4444 23.0556 13.9317 23.0556 17.0001C23.0556 20.0683 20.5683 22.5556 17.5001 22.5556ZM17.5001 8.44145C12.7732 8.44145 8.94147 12.2732 8.94147 17.0001C8.94147 21.7268 12.7732 25.5586 17.5001 25.5586C22.2268 25.5586 26.0586 21.7268 26.0586 17.0001C26.0586 12.2732 22.2268 8.44145 17.5001 8.44145V8.44145ZM28.3967 8.10329C28.3967 9.20791 27.5013 10.1033 26.3967 10.1033C25.2922 10.1033 24.3967 9.20791 24.3967 8.10329C24.3967 6.99873 25.2922 6.10326 26.3967 6.10326C27.5013 6.10326 28.3967 6.99873 28.3967 8.10329" fill="#7FDEE4"/>
</svg>

<svg width="35" height="34" fill="none" xmlns="http://www.w3.org/2000/svg"><path d="M17.5.333c-4.526 0-5.094.02-6.872.1-1.774.082-2.985.363-4.045.775A8.17 8.17 0 0 0 3.63 3.131a8.169 8.169 0 0 0-1.923 2.952c-.412 1.06-.693 2.271-.774 4.045-.082 1.778-.1 2.346-.1 6.872s.018 5.094.1 6.872c.08 1.774.362 2.985.774 4.045a8.171 8.171 0 0 0 1.923 2.952 8.17 8.17 0 0 0 2.952 1.923c1.06.412 2.271.693 4.045.774 1.778.081 2.346.1 6.872.1s5.094-.018 6.872-.1c1.774-.08 2.985-.362 4.045-.774a8.171 8.171 0 0 0 2.952-1.923 8.171 8.171 0 0 0 1.923-2.952c.412-1.06.694-2.271.774-4.045.081-1.778.1-2.346.1-6.872s-.018-5.094-.1-6.872c-.08-1.774-.362-2.985-.774-4.045a8.17 8.17 0 0 0-1.923-2.952 8.171 8.171 0 0 0-2.952-1.923c-1.06-.412-2.271-.693-4.045-.774-1.778-.081-2.346-.1-6.872-.1zm0 3.003c4.45 0 4.977.017 6.735.098 1.625.074 2.507.345 3.095.573a5.164 5.164 0 0 1 1.916 1.247 5.164 5.164 0 0 1 1.247 1.916c.228.588.5 1.47.574 3.095.08 1.758.097 2.285.097 6.735s-.017 4.977-.098 6.735c-.074 1.625-.345 2.507-.573 3.095a5.163 5.163 0 0 1-1.247 1.916 5.163 5.163 0 0 1-1.916 1.247c-.588.228-1.47.5-3.095.574-1.757.08-2.284.097-6.735.097-4.45 0-4.977-.017-6.735-.098-1.625-.074-2.507-.345-3.094-.573a5.163 5.163 0 0 1-1.917-1.247 5.164 5.164 0 0 1-1.247-1.916c-.228-.588-.5-1.47-.573-3.095-.08-1.758-.098-2.285-.098-6.735s.017-4.977.098-6.735c.074-1.625.345-2.507.573-3.094a5.164 5.164 0 0 1 1.247-1.917A5.164 5.164 0 0 1 7.67 4.007c.588-.228 1.47-.5 3.095-.573 1.758-.08 2.285-.098 6.735-.098" fill="#7FDEE4"/><path d="M17.5 22.556a5.556 5.556 0 1 1 0-11.112 5.556 5.556 0 0 1 0 11.112zm0-14.115a8.559 8.559 0 1 0 0 17.117 8.559 8.559 0 0 0 0-17.117zm10.897-.338a2 2 0 1 1-4 0 2 2 0 0 1 4 0" fill="#7FDEE4"/></svg>
